X:533
T:Lea Rig, The
D:Swarbrick, Ceilidh Album
Z:Nigel Gatherer
M:2/4
L:1/16
K:A
cB | c2E2 E2F2 | A3B  A2c2 | B3c  dcBA | c2F2 F2
cB | c2E2 E2F2 | A3B  Acea | f2fe fgae | c2A2 A2  :|
e2 | fefg a2c2 | dcde f2A2 | BABc dcBA | c2F2 F2 
cB | c2E2 E2F2 | A3B  Acea | f2fe fgae | c2A2 A2 :|]
